src/assets/duotone/ReceiptDisscount.svg

<svg width="24" height="24" viewBox="0 0 24 24"  xmlns="http://www.w3.org/2000/svg">
<path opacity="0.4" d="M6.73 19.7C7.55 18.82 8.8 18.89 9.52 19.85L10.53 21.2C11.34 22.27 12.65 22.27 13.46 21.2L14.47 19.85C15.19 18.89 16.44 18.82 17.26 19.7C19.04 21.6 20.49 20.97 20.49 18.31V7.04C20.5 3.01 19.56 2 15.78 2H8.22C4.44 2 3.5 3.01 3.5 7.04V18.3C3.5 20.97 4.96 21.59 6.73 19.7Z" />
<path d="M15 14C14.44 14 14 13.55 14 13C14 12.45 14.45 12 15 12C15.55 12 16 12.45 16 13C16 13.55 15.56 14 15 14Z" />
<path d="M9 9C8.44 9 8 8.55 8 8C8 7.45 8.45 7 9 7C9.55 7 10 7.45 10 8C10 8.55 9.56 9 9 9Z" />
<path d="M8.62982 14.55C8.43982 14.55 8.24982 14.48 8.09982 14.33C7.80982 14.04 7.80982 13.56 8.09982 13.27L14.8298 6.54001C15.1198 6.25001 15.5998 6.25001 15.8898 6.54001C16.1798 6.83001 16.1798 7.31001 15.8898 7.60001L9.15982 14.33C9.01982 14.48 8.81982 14.55 8.62982 14.55Z" />
</svg>

<?xml version="1.0" encoding="UTF-8"?>
<svg width="24" height="24" viewBox="0 0 24 24" xmlns="http://www.w3.org/2000/svg">
 <path d="m6.73 19.7c0.82-0.88 2.07-0.81 2.79 0.15l1.01 1.35c0.81 1.07 2.12 1.07 2.93 0l1.01-1.35c0.72-0.96 1.97-1.03 2.79-0.15 1.78 1.9 3.23 1.27 3.23-1.39v-11.27c0.01-4.03-0.93-5.04-4.71-5.04h-7.56c-3.78 0-4.72 1.01-4.72 5.04v11.26c0 2.67 1.46 3.29 3.23 1.4z" opacity=".4"/>
 <path d="m15 14c-0.56 0-1-0.45-1-1s0.45-1 1-1 1 0.45 1 1-0.44 1-1 1z"/>
 <path d="m9 9c-0.56 0-1-0.45-1-1s0.45-1 1-1 1 0.45 1 1-0.44 1-1 1z"/>
 <path d="m8.6298 14.55c-0.19 0-0.38-0.07-0.53-0.22-0.29-0.29-0.29-0.77 0-1.06l6.73-6.73c0.29-0.29 0.77-0.29 1.06 0s0.29 0.77 0 1.06l-6.73 6.73c-0.14 0.15-0.34 0.22-0.53 0.22z"/>
</svg>
